!!!COM: Bach, Johann Sebastian
!!!OPR: Joh. Seb. Bachs vierstimmige Choralges‰nge
!!!XEN: Four-part Chorales
!!!OTL: 149. O Mensch, bewein' dein' S¸nde gross
!!!SCT: BWV 402
!!!SCA: Thematisch-systematisches Verzeichnis der musikalischen Werke Johann Sebastian Bach: Bach-Werke-Verzeichnis (Schmieder)
!!!YOR: Bach Gesellschaft Edition xxxix
!!!ENC: Steven Rasmussen
!!!CDT: 1685/3//-1750/7/28/
!!!OCY: Deutschland
!!!YEC: Copyright (c) 1994, 2000 Center for Computer Assisted Research in the Humanities
!!!YEM: Rights to all derivative editions reserved
!!!YEN: United States of America
**kern	**silbe	**kern	**silbe	**kern	**silbe	**kern	**silbe
*I:[SOPRANO]	*I:[SOPRANO]	*I:[ALTO]	*I:[ALTO]	*I:[TENORE]	*I:[TENORE]	*I:[BASSO]	*I:[BASSO]
*>[A,A,B]	*	*>[A,A,B]	*	*>[A,A,B]	*	*>[A,A,B]	*
*>A	*	*>A	*	*>A	*	*>A	*
*clefG2	*	*clefG2	*	*clefGv2	*	*clefF4	*
*k[b-e-a-]	*	*k[b-e-a-]	*	*k[b-e-a-]	*	*k[b-e-a-]	*
*E-:	*	*E-:	*	*E-:	*	*E-:	*
*M4/4	*	*M4/4	*	*M4/4	*	*M4/4	*
4e-	OVon	4B-	.	4G	.	4E-	.
=1	=1	=1	=1	=1	=1	=1	=1
4e-	Mensch,ei-	4.c	.	4A-	.	8A-L	.
.	.	.	.	.	.	8GJ	.
4f	be--ner	.	.	4A-	.	4F	.
.	.	16BnLL	.	.	.	.	.
.	.	16cJJ	.	.	.	.	.
8gL	-wein'Jung-	4.d	.	4G	.	4BBn	.
8fJ	.	.	.	.	.	.	.
4e-	dein'-frau	.	.	4G	.	4C	.
.	.	16cLL	.	.	.	.	.
.	.	16dJJ	.	.	.	.	.
=2	=2	=2	=2	=2	=2	=2	=2
4g	S√ºn-zart	4.e-	.	8cL	.	4C	.
.	.	.	.	8B-J	.	.	.
4an	-deund	.	.	4An	.	4FF#	.
.	.	8d	.	.	.	.	.
4b-;	gross,rein	4d;	.	4G;	.	4GG;	.
4b-	da-f√ºr	[4g	da-f√ºr	4d	da-f√ºr	4G	.
=3	=3	=3	=3	=3	=3	=3	=3
4a-	-rumuns	8g]	.	8e-L	-rumuns	8CL	.
.	.	4f	-rumuns	8B-J	.	8DJ	.
4g	Chri-er	.	.	4B-	Chri-er	4E-	.
.	.	4e-	Chri-er	.	.	.	.
4f	-stushier	.	.	8cL	-stushier	8AAnL	.
.	.	8d	-stushier	8GJ	.	8BBnJ	.
8e-L	sein'sge-	8cL	.	4G	.	4C	.
8fJ	.	8dJ	.	.	.	.	.
=4	=4	=4	=4	=4	=4	=4	=4
4g	Va--bo-	4e-	.	8cL	.	4C	.
.	.	.	.	8B-J	.	.	.
4an	-ters-ren	4e-	.	4c	.	4FF	.
4b-;	Schossward,?	4d;	.	4B-;	.	4BB-;	.
4cc	√§u-er	[4f	√§u-er	[4A-	√§u-er	8FL	√§u-er
.	.	.	.	.	.	8E-J	.
=5	=5	=5	=5	=5	=5	=5	=5
4b-	-ssertwollt'	8f]	.	8A-]	.	8DL	-ssertwollt'
.	.	16e-LL	-ssertwollt'	4G	-ssertwollt'	8BB-J	.
.	.	16dJ	.	.	.	.	.
4a-	undder	8e-J	.	.	.	8CL	undder
.	.	8B-	undder	8F	undder	8DJ	.
4g	kamMitt-	8B-L	kamMitt-	4.E-	kamMitt-	8E-L	kamMitt-
.	.	16e-L	.	.	.	8DJ	.
.	.	16dJJ	.	.	.	.	.
4a-	auf-ler	[4e-	.	.	.	8CL	auf-ler
.	.	.	.	8B-	auf-ler	8BB-J	.
=6	=6	=6	=6	=6	=6	=6	=6
2f	Er-wer-	8e-]	.	8cL	Er-wer-	8AA-L	Er-wer-
.	.	16dLL	auf-ler	8A-	.	8FFJ	.
.	.	16cJJ	.	.	.	.	.
.	.	4d	Er-wer-	8F	.	4BB-	.
.	.	.	.	8B-J	.	.	.
4e-;	-den.-den.	4B-;	-den.-den.	4G;	-den.-den.	4EE-;	-den.-den.
=:|!	=:|!	=:|!	=:|!	=:|!	=:|!	=:|!	=:|!
*>B	*	*>B	*	*>B	*	*>B	*
4ee-	Den	8b-L	.	8GL	.	8EE-L	.
.	.	8a-J	.	8A-J	.	8FFJ	.
=7	=7	=7	=7	=7	=7	=7	=7
4ee-	To-	4g	.	4B-	.	4GG	.
4ee-	-den	4f	.	4c	.	4AAn	.
4dd	er	4f	.	8cL	.	8BB-L	.
.	.	.	.	16B-L	.	8CJ	.
.	.	.	.	16A-JJ	.	.	.
4b-	das	4e-	.	4G	.	4D-	.
=8	=8	=8	=8	=8	=8	=8	=8
4cc	Le-	8e-L	.	4A-	.	8CL	.
.	.	8d-J	.	.	.	8BB-J	.
4cc	-ben	4e-	.	4A-	.	4AA-	.
4g;	gab,	4e-;	.	4B-;	.	4E-;	.
4ee-	und	4g	.	4c	.	8CL	.
.	.	.	.	.	.	8BB-J	.
=9	=9	=9	=9	=9	=9	=9	=9
4ee-	legt'	4f	.	8cL	.	8AAnL	.
.	.	.	.	8B-J	.	8GGJ	.
4ee-	da-	4f	.	4An	.	4FF	.
4dd	-bei	4f	.	8B-L	.	8BB-L	.
.	.	.	.	8AJ	.	8CJ	.
4b-	all'	4f	.	4B-	.	4D	.
=10	=10	=10	=10	=10	=10	=10	=10
4cc	Krank-	4g	.	8B-L	.	4E-	.
.	.	.	.	16AnL	.	.	.
.	.	.	.	16GJJ	.	.	.
4cc	-heit	8fL	.	4A	.	4F	.
.	.	8e-J	.	.	.	.	.
4b-;	ab,	4d;	.	4B-;	.	4BB-;	.
8gL	bis	8e-L	.	4B-	.	4E-	.
8a-J	.	8fJ	.	.	.	.	.
=11	=11	=11	=11	=11	=11	=11	=11
4b-	sich	4g	.	4e-	.	8E-L	.
.	.	.	.	.	.	8D-J	.
4cc	die	4a-	.	4e-	.	8CL	.
.	.	.	.	.	.	8DnJ	.
4b-	Zeit	4g	.	(8e-	.	4E-	.
.	.	.	.	4d-)	.	.	.
4g	her-	4g	.	.	.	4En	.
.	.	.	.	8c	.	.	.
=12	=12	=12	=12	=12	=12	=12	=12
2a-	-dran-	8gL	.	4c	.	4F	.
.	.	16fL	.	.	.	.	.
.	.	16e-J	.	.	.	.	.
.	.	8f	.	8dL	.	4BBn	.
.	.	8dJ	.	8fJ	.	.	.
4g;	-ge,	4e-;	.	4c;	.	4C;	.
4f	dass	4f	.	4A-	.	4D-	.
=13	=13	=13	=13	=13	=13	=13	=13
4g	er	4e-	.	4B-	.	4D-	.
4a-	f√ºr	4e-	.	4c	.	4C	.
4b-	uns	4f	.	4d	.	8BB-L	.
.	.	.	.	.	.	8AA-J	.
4b-	ge-	4g	.	8DL	.	4GG	.
.	.	.	.	8EnJ	.	.	.
=14	=14	=14	=14	=14	=14	=14	=14
4a-	-op-	8cL	.	4F	.	4FF	.
.	.	8dJ	.	.	.	.	.
4g	-fert	4e-	.	4B-	.	8GGL	.
.	.	.	.	.	.	8AA-J	.
4f;	w√ºrd',	(8e-L	.	4B-;	.	4BB-;	.
.	.	8d;J)	.	.	.	.	.
4b-	tr√ºg'	4f	.	4d	.	4B-	.
=15	=15	=15	=15	=15	=15	=15	=15
4cc	uns-	4f	.	4c	.	4An	.
4dd	-rer	4f	.	4B-	.	4A-	.
4ee-	S√ºn-	8gL	.	8B-L	.	4.G	.
.	.	8anJ	.	8cJ	.	.	.
4dd	-den	4b-	.	4d	.	.	.
.	.	.	.	.	.	8F	.
=16	=16	=16	=16	=16	=16	=16	=16
4cc	schwe-	4b-	.	4G	.	4En	.
4cc	-re	4an	.	4d	.	4F#	.
4b-;	B√ºrd'	4g;	.	4d;	.	4G;	.
4e-	wohl	4e-	.	4c	.	4A-	.
=17	=17	=17	=17	=17	=17	=17	=17
4f	an	4d	.	4B-	.	8A-L	.
.	.	.	.	.	.	8GJ	.
4g	dem	4e-	.	[4B-	.	8FL	.
.	.	.	.	.	.	8E-J	.
4a-	Kreu-	8fL	.	8B-L]	.	8DL	.
.	.	8dJ	.	8FJ	.	8BB-J	.
4g	-ze	8B-L	.	8GL	.	8E-L	.
.	.	8e-J	.	8B-J	.	8GGJ	.
=18	=18	=18	=18	=18	=18	=18	=18
2f	lan-	8e-L	.	8cL	.	4AA-	.
.	.	16dL	.	8A-	.	.	.
.	.	16cJJ	.	.	.	.	.
.	.	4d	.	8F	.	4BB-	.
.	.	.	.	16B-L	.	.	.
.	.	.	.	16A-JJ	.	.	.
4e-;	-ge.	4B-;	.	4G;	.	4EE-;	.
==|!	==|!	==|!	==|!	==|!	==|!	==|!	==|!
!!!RNB1: *) "Schoss" spelled "Schooss" in BG.
*-	*-	*-	*-	*-	*-	*-	*-
!!!RWG: Key is interpreted using the Humdrum key tool.
!!!END: 1994/07/27
!!!EMD: Converted from MuseData to Humdrum Dec 19, 2000, by Andreas Kornstaedt using muse2kern.
!!!EED: Craig Stuart Sapp
!!!EEV: 2024/03/31
!!!ONB: Some non-unicode characters
